public/1.svg

<svg width="155" height="130" viewBox="0 0 155 130" fill="none" xmlns="http://www.w3.org/2000/svg">
<g clip-path="url(#clip0_9_84276)">
<path d="M37.9021 72.6602V73.2651C37.8901 73.2591 37.8831 73.2522 37.8711 73.2462C37.8938 73.0517 37.9042 72.8559 37.9021 72.6602Z" fill="white"/>
<path d="M37.8716 73.2466C37.5906 75.7736 35.8385 78.2735 32.4885 80.2075C25.2725 84.3745 13.5646 84.3745 6.34864 80.2075C3.42364 78.5235 1.68667 76.4076 1.12867 74.2196C0.99981 73.71 0.934862 73.1862 0.935552 72.6605C0.935552 69.9285 2.73561 67.1965 6.34961 65.1135C13.5666 60.9465 25.2735 60.9465 32.4895 65.1135C36.0895 67.1965 37.9036 69.9285 37.9036 72.6605C37.9038 72.8563 37.8932 73.052 37.8716 73.2466Z" fill="#CEE7FD"/>
<path d="M1.12866 74.2202L0.935549 74.3322V72.6602C0.935138 73.1861 1.00008 73.7102 1.12866 74.2202Z" fill="white"/>
<path d="M19.4185 92.9813C14.7042 93.0744 10.0444 91.962 5.88063 89.7494C2.08863 87.5554 -0.00145361 84.5873 -0.00145361 81.3923C-0.00555491 81.2669 0.015635 81.142 0.0608022 81.0249C0.10597 80.9078 0.174212 80.801 0.261486 80.7108C0.34876 80.6206 0.453316 80.549 0.568859 80.5C0.684402 80.451 0.808601 80.4258 0.934093 80.4258C1.05959 80.4258 1.18378 80.451 1.29933 80.5C1.41487 80.549 1.51943 80.6206 1.6067 80.7108C1.69397 80.801 1.76222 80.9078 1.80738 81.0249C1.85255 81.142 1.87374 81.2669 1.86964 81.3923C1.86964 83.8923 3.62666 86.2843 6.81666 88.1293C13.7647 92.1403 25.0716 92.1403 32.0166 88.1293C35.2066 86.2813 36.9627 83.8883 36.9627 81.3923C36.9586 81.2669 36.9797 81.142 37.0249 81.0249C37.0701 80.9078 37.1383 80.801 37.2256 80.7108C37.3129 80.6206 37.4172 80.549 37.5327 80.5C37.6483 80.451 37.7725 80.4258 37.898 80.4258C38.0235 80.4258 38.1477 80.451 38.2632 80.5C38.3787 80.549 38.4833 80.6206 38.5706 80.7108C38.6578 80.801 38.7261 80.9078 38.7713 81.0249C38.8164 81.142 38.8376 81.2669 38.8335 81.3923C38.8335 84.5833 36.7456 87.5513 32.9536 89.7483C28.7907 91.9604 24.1318 93.0733 19.4185 92.9813Z" fill="#005BEA"/>
<path d="M19.4199 84.2508C14.7055 84.3439 10.0457 83.231 5.88208 81.0178C2.83208 79.2618 0.874145 76.9908 0.223145 74.4528C0.0751436 73.867 9.60993e-05 73.2651 0 72.6608C0 69.4608 2.08908 66.4918 5.88208 64.3028C13.3471 59.9928 25.493 59.9928 32.958 64.3028C36.751 66.4948 38.8401 69.4638 38.8401 72.6608C38.8418 72.8968 38.8287 73.1325 38.801 73.3668C38.53 76.2668 36.454 78.9998 32.958 81.0168C28.7944 83.2302 24.1344 84.3434 19.4199 84.2508ZM19.4199 62.9149C15.0323 62.829 10.6955 63.8646 6.82007 65.9238C3.63107 67.7648 1.87402 70.1568 1.87402 72.6618C1.87388 73.1103 1.92934 73.557 2.03906 73.9918C2.56206 76.0278 4.21507 77.8978 6.82007 79.3978C13.7701 83.4098 25.0781 83.4098 32.0261 79.3978C34.9821 77.6908 36.7261 75.4759 36.9451 73.1599C36.9649 72.994 36.9738 72.8269 36.9719 72.6599C36.9719 70.1599 35.2161 67.7658 32.0251 65.9218C28.1482 63.8623 23.8091 62.8273 19.4199 62.9149Z" fill="#005BEA"/>
<path d="M37.9028 82.3123C37.7809 82.3144 37.6599 82.2922 37.5466 82.2471C37.4334 82.202 37.33 82.1349 37.2429 82.0496C37.1558 81.9642 37.0867 81.8624 37.0393 81.7501C36.9919 81.6378 36.9672 81.5172 36.9668 81.3953V72.6632C36.9747 72.4204 37.0769 72.1902 37.2515 72.0212C37.426 71.8523 37.6594 71.7578 37.9023 71.7578C38.1453 71.7578 38.3786 71.8523 38.5532 72.0212C38.7278 72.1902 38.83 72.4204 38.8379 72.6632V81.3572C38.8385 81.6072 38.7406 81.8475 38.5657 82.0261C38.3908 82.2048 38.1528 82.3075 37.9028 82.3123Z" fill="#005BEA"/>
<path d="M0.936035 82.3123C0.814131 82.3144 0.69311 82.2922 0.579834 82.2471C0.466558 82.202 0.363214 82.1349 0.276123 82.0496C0.189032 81.9642 0.119919 81.8624 0.0725098 81.7501C0.0251006 81.6378 0.000379123 81.5172 0 81.3953V72.6632C0.00793988 72.4204 0.110095 72.1902 0.284668 72.0212C0.459241 71.8523 0.692601 71.7578 0.935547 71.7578C1.17849 71.7578 1.41185 71.8523 1.58643 72.0212C1.761 72.1902 1.86315 72.4204 1.87109 72.6632V81.3572C1.87192 81.6073 1.77432 81.8477 1.59937 82.0264C1.42441 82.2051 1.18608 82.3078 0.936035 82.3123Z" fill="#005BEA"/>
<path d="M16.8208 68.1992L25.8518 73.4122L23.2969 74.8872L16.2407 70.8132L14.5637 71.7812L12.5898 70.6422L16.8208 68.1992Z" fill="#005BEA"/>
<path d="M120.603 87.0547V87.6547C120.591 87.6487 120.584 87.6426 120.572 87.6356C120.595 87.4428 120.605 87.2488 120.603 87.0547Z" fill="white"/>
<path d="M120.572 87.6402C120.291 90.1672 118.539 92.6673 115.189 94.6013C107.973 98.7673 96.2656 98.7673 89.0486 94.6013C86.1226 92.9173 84.3856 90.8013 83.8276 88.6133C83.6989 88.1036 83.6342 87.58 83.6348 87.0543C83.6348 84.3223 85.4346 81.5903 89.0486 79.5073C96.2656 75.3413 107.973 75.3413 115.189 79.5073C118.794 81.5903 120.603 84.3223 120.603 87.0543C120.603 87.2501 120.593 87.4456 120.572 87.6402Z" fill="white"/>
<path d="M83.8276 88.6146L83.6348 88.7267V87.0547C83.6344 87.5807 83.6991 88.1046 83.8276 88.6146Z" fill="white"/>
<path d="M102.118 107.381C97.4042 107.474 92.7445 106.362 88.5811 104.149C84.7881 101.955 82.6992 98.9861 82.6992 95.7921C82.7072 95.5493 82.8091 95.3191 82.9836 95.1501C83.1582 94.9812 83.3916 94.8867 83.6345 94.8867C83.8775 94.8867 84.1111 94.9812 84.2856 95.1501C84.4602 95.3191 84.5621 95.5493 84.5701 95.7921C84.5701 98.2921 86.3271 100.684 89.5171 102.53C96.4651 106.54 107.772 106.54 114.717 102.53C117.906 100.681 119.664 98.2881 119.664 95.7921C119.672 95.5493 119.774 95.3191 119.949 95.1501C120.123 94.9812 120.357 94.8867 120.6 94.8867C120.843 94.8867 121.076 94.9812 121.25 95.1501C121.425 95.3191 121.527 95.5493 121.535 95.7921C121.535 98.9821 119.446 101.951 115.654 104.149C111.491 106.361 106.832 107.474 102.118 107.381Z" fill="#005BEA"/>
<path d="M102.119 98.645C97.4048 98.7379 92.7447 97.625 88.5811 95.4119C85.5301 93.6559 83.5731 91.3859 82.9221 88.8469C82.774 88.2611 82.6992 87.6591 82.6992 87.0549C82.6992 83.8549 84.788 80.884 88.582 78.697C96.045 74.388 108.192 74.387 115.657 78.697C119.45 80.888 121.539 83.8569 121.539 87.0539C121.541 87.2898 121.527 87.5257 121.499 87.76C121.228 90.66 119.152 93.393 115.656 95.411C111.493 97.6241 106.833 98.7372 102.119 98.645ZM102.119 77.3089C97.7315 77.2228 93.3943 78.2585 89.519 80.3179C86.33 82.1579 84.572 84.551 84.572 87.056C84.5718 87.5044 84.6272 87.9511 84.7371 88.3859C85.2591 90.4219 86.9131 92.2919 89.5171 93.7919C96.4671 97.8029 107.775 97.8039 114.723 93.7919C117.679 92.0849 119.423 89.8709 119.642 87.5539C119.662 87.388 119.671 87.221 119.669 87.0539C119.669 84.5539 117.912 82.1599 114.722 80.3159C110.846 78.2565 106.508 77.2215 102.119 77.3089Z" fill="#005BEA"/>
<path d="M120.604 96.7029C120.482 96.705 120.361 96.6829 120.248 96.6378C120.134 96.5927 120.031 96.5255 119.944 96.4402C119.857 96.3549 119.788 96.2531 119.74 96.1407C119.693 96.0284 119.668 95.9078 119.668 95.7859V87.0538C119.676 86.811 119.778 86.5808 119.952 86.4119C120.127 86.2429 120.36 86.1484 120.603 86.1484C120.846 86.1484 121.08 86.2429 121.254 86.4119C121.429 86.5808 121.531 86.811 121.539 87.0538V95.7479C121.54 95.998 121.442 96.2383 121.267 96.417C121.092 96.5957 120.854 96.6984 120.604 96.7029Z" fill="#005BEA"/>
<path d="M107.393 85.4818L109.419 86.6517L102.388 90.7108L100.788 89.7877L101.008 86.0108C101.041 85.7243 100.994 85.4344 100.873 85.1727C100.753 84.9702 100.58 84.8043 100.373 84.6928C100.076 84.5229 99.7355 84.4449 99.3942 84.4688C99.0011 84.4989 98.6207 84.6216 98.2841 84.8268C97.9923 84.9765 97.7494 85.2065 97.5841 85.4898C97.5209 85.6079 97.4847 85.7386 97.4779 85.8725C97.4712 86.0063 97.494 86.1399 97.5451 86.2638L94.5912 86.7488C94.4763 86.4849 94.4254 86.1976 94.4428 85.9103C94.4602 85.623 94.5452 85.3439 94.6911 85.0958C95.1197 84.4144 95.7268 83.863 96.4462 83.5017C97.1203 83.1103 97.8484 82.8205 98.6071 82.6417C99.3266 82.4674 100.07 82.4135 100.807 82.4818C101.475 82.5358 102.123 82.734 102.707 83.0628C103.142 83.2937 103.511 83.6321 103.778 84.0458C104.023 84.5258 104.113 85.0696 104.036 85.6028L103.907 87.4948L107.393 85.4818Z" fill="#005BEA"/>
<path d="M153.231 34.5898V35.1898C153.219 35.1838 153.212 35.1778 153.199 35.1708C153.222 34.9781 153.233 34.784 153.231 34.5898Z" fill="#1B69FF"/>
<path d="M153.202 35.1723C152.921 37.6993 151.169 40.1993 147.82 42.1333C140.603 46.2993 128.896 46.2993 121.68 42.1333C118.755 40.4493 117.017 38.3333 116.459 36.1453C116.33 35.6357 116.265 35.112 116.266 34.5863C116.266 31.8543 118.066 29.1223 121.68 27.0393C128.896 22.8723 140.604 22.8723 147.82 27.0393C151.42 29.1223 153.234 31.8543 153.234 34.5863C153.234 34.7821 153.223 34.9777 153.202 35.1723Z" fill="#1B69FF"/>
<path d="M116.453 36.1459L116.26 36.2579V34.5859C116.259 35.1119 116.324 35.6359 116.453 36.1459Z" fill="#1B69FF"/>
<path d="M134.748 54.911C130.033 55.0042 125.374 53.8918 121.21 51.6791C117.417 49.4851 115.329 46.517 115.329 43.322C115.325 43.1966 115.346 43.0716 115.391 42.9545C115.436 42.8374 115.504 42.7307 115.592 42.6405C115.679 42.5503 115.783 42.4786 115.899 42.4296C116.014 42.3807 116.139 42.3555 116.264 42.3555C116.39 42.3555 116.514 42.3807 116.629 42.4296C116.745 42.4786 116.85 42.5503 116.937 42.6405C117.024 42.7307 117.092 42.8374 117.137 42.9545C117.183 43.0716 117.204 43.1966 117.2 43.322C117.2 45.822 118.956 48.214 122.146 50.058C129.094 54.07 140.401 54.069 147.346 50.058C150.535 48.21 152.292 45.818 152.292 43.322C152.288 43.1966 152.309 43.0716 152.354 42.9545C152.399 42.8374 152.467 42.7307 152.554 42.6405C152.642 42.5503 152.746 42.4786 152.862 42.4296C152.977 42.3807 153.102 42.3555 153.227 42.3555C153.353 42.3555 153.477 42.3807 153.592 42.4296C153.708 42.4786 153.812 42.5503 153.9 42.6405C153.987 42.7307 154.055 42.8374 154.1 42.9545C154.146 43.0716 154.167 43.1966 154.163 43.322C154.163 46.513 152.076 49.481 148.283 51.678C144.12 53.8898 139.461 55.0026 134.748 54.911Z" fill="#005BEA"/>
<path d="M134.748 46.1801C130.033 46.2735 125.373 45.1606 121.209 42.9472C118.159 41.1922 116.201 38.9212 115.55 36.3821C115.402 35.7963 115.328 35.1944 115.328 34.5902C115.328 31.3902 117.416 28.4201 121.21 26.2321C128.674 21.9231 140.822 21.9221 148.286 26.2321C152.079 28.4241 154.167 31.3911 154.167 34.5891C154.169 34.8247 154.156 35.0602 154.128 35.2941C153.857 38.1991 151.78 40.9281 148.286 42.9451C144.123 45.1586 139.463 46.2721 134.748 46.1801ZM134.748 24.8452C130.36 24.7588 126.023 25.7945 122.148 27.8541C118.959 29.6941 117.202 32.0861 117.202 34.5911C117.202 35.0392 117.257 35.4855 117.366 35.9202C117.889 37.9572 119.543 39.8271 122.147 41.3261C129.097 45.3391 140.404 45.3381 147.353 41.3261C150.308 39.6201 152.053 37.4051 152.271 35.0891C152.291 34.9232 152.3 34.7562 152.298 34.5891C152.298 32.0891 150.541 29.6951 147.352 27.8521C143.475 25.7925 139.137 24.7572 134.748 24.8441V24.8452Z" fill="#005BEA"/>
<path d="M153.233 44.237C153.111 44.2393 152.99 44.2172 152.877 44.1722C152.763 44.1273 152.66 44.0602 152.573 43.975C152.486 43.8897 152.417 43.788 152.369 43.6757C152.322 43.5634 152.297 43.4429 152.297 43.321V34.589C152.305 34.3462 152.407 34.116 152.581 33.947C152.756 33.7781 152.989 33.6836 153.232 33.6836C153.475 33.6836 153.709 33.7781 153.883 33.947C154.058 34.116 154.16 34.3462 154.168 34.589V43.283C154.168 43.5329 154.071 43.7731 153.896 43.9515C153.721 44.13 153.483 44.2325 153.233 44.237Z" fill="#005BEA"/>
<path d="M116.264 44.237C116.142 44.2391 116.021 44.217 115.908 44.172C115.795 44.127 115.692 44.0599 115.605 43.9747C115.518 43.8895 115.448 43.7878 115.401 43.6756C115.353 43.5634 115.329 43.4428 115.328 43.321V34.589C115.336 34.3462 115.438 34.116 115.613 33.947C115.787 33.7781 116.021 33.6836 116.264 33.6836C116.507 33.6836 116.74 33.7781 116.915 33.947C117.089 34.116 117.191 34.3462 117.199 34.589V43.283C117.2 43.5329 117.102 43.7731 116.927 43.9515C116.752 44.13 116.514 44.2325 116.264 44.237Z" fill="#005BEA"/>
<path d="M138.032 32.287C138.828 32.3043 139.608 32.5168 140.303 32.906C140.77 33.143 141.141 33.5336 141.354 34.012C141.435 34.2451 141.458 34.4943 141.421 34.7382C141.384 34.982 141.288 35.2133 141.142 35.412C140.68 36.0452 140.073 36.5593 139.373 36.912C138.698 37.2973 137.987 37.6177 137.251 37.869C136.513 38.13 135.751 38.3159 134.975 38.424L133.981 36.778C134.575 36.7137 135.16 36.5901 135.729 36.409C136.251 36.2489 136.754 36.0327 137.229 35.764C137.569 35.6084 137.849 35.3475 138.029 35.02C138.124 34.7767 138.021 34.568 137.719 34.394C137.351 34.2349 136.948 34.178 136.55 34.2292C136.153 34.2804 135.777 34.4378 135.461 34.685L134.39 35.303L132.778 34.372L132.649 32.435L129.088 34.492L127.115 33.351L133.642 29.582L135.242 30.506L135.383 32.748C136.226 32.4162 137.127 32.2594 138.032 32.287Z" fill="white"/>
<path d="M83.6362 96.7013C83.5143 96.7035 83.3932 96.6814 83.28 96.6363C83.1667 96.5912 83.0636 96.524 82.9765 96.4387C82.8894 96.3533 82.8201 96.2515 82.7726 96.1392C82.7252 96.0269 82.7008 95.9063 82.7004 95.7844V87.8903L35.0742 82.5904C34.8314 82.5581 34.6112 82.432 34.4604 82.2391C34.3096 82.0462 34.2403 81.8019 34.2675 81.5585C34.2947 81.3152 34.4162 81.0921 34.6059 80.9373C34.7956 80.7825 35.0383 80.7083 35.2822 80.7304L83.7402 86.1214C83.969 86.1468 84.1806 86.2557 84.3342 86.4273C84.4877 86.5989 84.5724 86.8211 84.5722 87.0513V95.7453C84.5733 95.9957 84.4757 96.2365 84.3005 96.4155C84.1253 96.5944 83.8866 96.6971 83.6362 96.7013Z" fill="#005BEA"/>
<path d="M112.015 78.8929C111.852 78.8929 111.691 78.8502 111.55 78.769C111.408 78.6878 111.29 78.571 111.208 78.4301C111.126 78.2893 111.082 78.1293 111.08 77.9661C111.079 77.8029 111.12 77.6422 111.2 77.4999L127.268 48.8649C127.389 48.6484 127.592 48.4889 127.831 48.4217C128.07 48.3545 128.326 48.3849 128.542 48.5064C128.759 48.6279 128.918 48.8304 128.986 49.0694C129.053 49.3084 129.022 49.5644 128.901 49.7809L112.832 78.4139C112.751 78.5592 112.632 78.6803 112.489 78.7645C112.345 78.8487 112.181 78.893 112.015 78.8929Z" fill="#005BEA"/>
</g>
<defs>
<clipPath id="clip0_9_84276">
<rect width="154.169" height="130" fill="white"/>
</clipPath>
</defs>
</svg>

<svg xmlns="http://www.w3.org/2000/svg" width="155" height="130" fill="none" viewBox="0 0 155 130"><g clip-path="url(#a)"><path fill="#fff" d="M37.902 72.66v.605c-.012-.006-.019-.013-.03-.019q.033-.291.03-.586"/><path fill="#cee7fd" d="M37.872 73.247c-.281 2.527-2.033 5.026-5.383 6.96-7.216 4.168-18.924 4.168-26.14 0-2.925-1.683-4.662-3.8-5.22-5.987a6.3 6.3 0 0 1-.193-1.56c0-2.731 1.8-5.463 5.414-7.546 7.217-4.168 18.924-4.168 26.14 0 3.6 2.082 5.414 4.814 5.414 7.546q0 .294-.032.587"/><path fill="#fff" d="m1.129 74.22-.193.112V72.66c0 .526.064 1.05.193 1.56"/><path fill="#005bea" d="M19.419 92.981A27.7 27.7 0 0 1 5.88 89.75c-3.792-2.194-5.882-5.162-5.882-8.357a.936.936 0 1 1 1.87 0c0 2.5 1.758 4.892 4.948 6.737 6.948 4.011 18.255 4.011 25.2 0 3.19-1.848 4.946-4.24 4.946-6.737a.935.935 0 1 1 1.87 0c0 3.191-2.087 6.16-5.88 8.356a27.7 27.7 0 0 1-13.535 3.233"/><path fill="#005bea" d="M19.42 84.25a27.7 27.7 0 0 1-13.538-3.232C2.832 79.262.874 76.99.223 74.453A7.3 7.3 0 0 1 0 72.66c0-3.2 2.09-6.17 5.882-8.358 7.465-4.31 19.611-4.31 27.076 0 3.793 2.192 5.882 5.16 5.882 8.358q.003.354-.039.706c-.271 2.9-2.347 5.633-5.843 7.65A27.7 27.7 0 0 1 19.42 84.25m0-21.335a25.8 25.8 0 0 0-12.6 3.009c-3.189 1.84-4.946 4.233-4.946 6.738 0 .448.055.895.165 1.33.523 2.036 2.176 3.906 4.781 5.406 6.95 4.012 18.258 4.012 25.206 0 2.956-1.707 4.7-3.922 4.92-6.238a4 4 0 0 0 .026-.5c0-2.5-1.756-4.894-4.947-6.738a25.8 25.8 0 0 0-12.605-3.007"/><path fill="#005bea" d="M37.903 82.312a.92.92 0 0 1-.936-.917v-8.732a.936.936 0 0 1 1.87 0v8.694a.953.953 0 0 1-.934.955M.936 82.312A.92.92 0 0 1 0 81.395v-8.732a.936.936 0 0 1 1.871 0v8.694a.95.95 0 0 1-.935.955M16.82 68.2l9.032 5.212-2.555 1.475-7.056-4.074-1.677.968-1.974-1.139z"/><path fill="#fff" d="M120.603 87.055v.6c-.012-.006-.019-.012-.031-.02a5 5 0 0 0 .031-.58"/><path fill="#fff" d="M120.572 87.64c-.281 2.527-2.033 5.027-5.383 6.961-7.216 4.166-18.923 4.166-26.14 0-2.926-1.684-4.663-3.8-5.221-5.988a6.3 6.3 0 0 1-.193-1.559c0-2.732 1.8-5.464 5.414-7.547 7.217-4.166 18.924-4.166 26.14 0 3.605 2.083 5.414 4.815 5.414 7.547q0 .294-.031.586"/><path fill="#fff" d="m83.828 88.615-.193.112v-1.672c0 .526.064 1.05.193 1.56"/><path fill="#005bea" d="M102.118 107.381a27.7 27.7 0 0 1-13.537-3.232c-3.793-2.194-5.882-5.163-5.882-8.357a.937.937 0 0 1 1.871 0c0 2.5 1.757 4.892 4.947 6.738 6.948 4.01 18.255 4.01 25.2 0 3.189-1.849 4.947-4.242 4.947-6.738a.935.935 0 0 1 1.871 0c0 3.19-2.089 6.159-5.881 8.357a27.7 27.7 0 0 1-13.536 3.232"/><path fill="#005bea" d="M102.119 98.645a27.7 27.7 0 0 1-13.538-3.233c-3.05-1.756-5.008-4.026-5.659-6.565a7.3 7.3 0 0 1-.223-1.792c0-3.2 2.089-6.171 5.883-8.358 7.463-4.309 19.61-4.31 27.075 0 3.793 2.191 5.882 5.16 5.882 8.357q.003.355-.04.706c-.271 2.9-2.347 5.633-5.843 7.651a27.7 27.7 0 0 1-13.537 3.234m0-21.336a25.8 25.8 0 0 0-12.6 3.009c-3.189 1.84-4.947 4.233-4.947 6.738 0 .448.055.895.165 1.33.522 2.036 2.176 3.906 4.78 5.406 6.95 4.01 18.258 4.012 25.206 0 2.956-1.707 4.7-3.921 4.919-6.238q.03-.25.027-.5c0-2.5-1.757-4.894-4.947-6.738a25.77 25.77 0 0 0-12.603-3.007"/><path fill="#005bea" d="M120.604 96.703a.92.92 0 0 1-.936-.917v-8.732a.94.94 0 0 1 .935-.906.935.935 0 0 1 .936.906v8.694a.95.95 0 0 1-.935.955M107.393 85.482l2.026 1.17-7.031 4.059-1.6-.923.22-3.777a1.57 1.57 0 0 0-.135-.838 1.3 1.3 0 0 0-.5-.48 1.73 1.73 0 0 0-.979-.224 2.5 2.5 0 0 0-1.11.358c-.292.15-.535.38-.7.663a.9.9 0 0 0-.039.774l-2.954.485a1.82 1.82 0 0 1 .1-1.653 4.4 4.4 0 0 1 1.755-1.594 8 8 0 0 1 2.161-.86 6.7 6.7 0 0 1 2.2-.16 4.6 4.6 0 0 1 1.9.58c.435.232.804.57 1.071.984.245.48.335 1.024.258 1.557l-.129 1.892z"/><path fill="#1b69ff" d="M153.231 34.59v.6c-.012-.006-.019-.012-.032-.02q.035-.288.032-.58"/><path fill="#1b69ff" d="M153.202 35.172c-.281 2.527-2.033 5.027-5.382 6.961-7.217 4.166-18.924 4.166-26.14 0-2.925-1.684-4.663-3.8-5.221-5.988a6.3 6.3 0 0 1-.193-1.559c0-2.732 1.8-5.464 5.414-7.547 7.216-4.167 18.924-4.167 26.14 0 3.6 2.083 5.414 4.815 5.414 7.547q0 .295-.032.586"/><path fill="#1b69ff" d="m116.453 36.146-.193.112v-1.672c-.001.526.064 1.05.193 1.56"/><path fill="#005bea" d="M134.748 54.911a27.7 27.7 0 0 1-13.538-3.232c-3.793-2.194-5.881-5.162-5.881-8.357a.94.94 0 0 1 .263-.681.93.93 0 0 1 .672-.285.93.93 0 0 1 .873.599.9.9 0 0 1 .063.367c0 2.5 1.756 4.892 4.946 6.736 6.948 4.012 18.255 4.011 25.2 0 3.189-1.848 4.946-4.24 4.946-6.736a.94.94 0 0 1 .262-.681.94.94 0 0 1 1.038-.211.94.94 0 0 1 .508.525.9.9 0 0 1 .063.367c0 3.191-2.087 6.159-5.88 8.356a27.7 27.7 0 0 1-13.535 3.233"/><path fill="#005bea" d="M134.748 46.18a27.7 27.7 0 0 1-13.539-3.233c-3.05-1.755-5.008-4.026-5.659-6.565a7.3 7.3 0 0 1-.222-1.792c0-3.2 2.088-6.17 5.882-8.358 7.464-4.309 19.612-4.31 27.076 0 3.793 2.192 5.881 5.16 5.881 8.357q.003.354-.039.705c-.271 2.905-2.348 5.634-5.842 7.651a27.7 27.7 0 0 1-13.538 3.235m0-21.335a25.77 25.77 0 0 0-12.6 3.01c-3.189 1.84-4.946 4.231-4.946 6.736 0 .448.055.895.164 1.33.523 2.036 2.177 3.906 4.781 5.405 6.95 4.013 18.257 4.012 25.206 0 2.955-1.706 4.7-3.92 4.918-6.237q.03-.25.027-.5c0-2.5-1.757-4.894-4.946-6.737a25.8 25.8 0 0 0-12.604-3.008z"/><path fill="#005bea" d="M153.233 44.237a.92.92 0 0 1-.864-.561.9.9 0 0 1-.072-.355v-8.732a.94.94 0 0 1 .935-.905.935.935 0 0 1 .936.905v8.694a.954.954 0 0 1-.935.954M116.264 44.237a.92.92 0 0 1-.936-.916v-8.732a.935.935 0 0 1 1.871 0v8.694a.95.95 0 0 1-.935.954"/><path fill="#fff" d="M138.032 32.287c.796.017 1.576.23 2.271.619a2.28 2.28 0 0 1 1.051 1.106 1.52 1.52 0 0 1-.212 1.4 4.94 4.94 0 0 1-1.769 1.5c-.675.385-1.386.706-2.122.957-.738.261-1.5.447-2.276.555l-.994-1.646a9 9 0 0 0 1.748-.369 7.5 7.5 0 0 0 1.5-.645c.34-.156.62-.417.8-.744q.143-.365-.31-.626a2.23 2.23 0 0 0-2.258.291l-1.071.618-1.612-.931-.129-1.937-3.561 2.057-1.973-1.141 6.527-3.769 1.6.924.141 2.242a6.7 6.7 0 0 1 2.649-.461"/><path fill="#005bea" d="M83.636 96.701a.92.92 0 0 1-.936-.917V87.89l-47.626-5.3a.935.935 0 0 1 .208-1.86l48.458 5.391a.936.936 0 0 1 .832.93v8.694a.95.95 0 0 1-.936.956M112.015 78.893a.933.933 0 0 1-.815-1.393l16.068-28.635a.935.935 0 1 1 1.633.916l-16.069 28.633a.94.94 0 0 1-.817.479"/></g><defs><clipPath id="a"><path fill="#fff" d="M0 0h154.169v130H0z"/></clipPath></defs></svg>
